images/3004756.svg

<?xml version="1.0" encoding="UTF-8"?>
<svg xmlns="http://www.w3.org/2000/svg" xmlns:xlink="http://www.w3.org/1999/xlink" width="300pt" height="300pt" viewBox="0 0 300 300" version="1.1">
<defs>
<g>
<symbol overflow="visible" id="glyph0-0">
<path style="stroke:none;" d="M 0.453125 1.59375 L 0.453125 -6.34375 L 4.953125 -6.34375 L 4.953125 1.59375 Z M 0.953125 1.09375 L 4.453125 1.09375 L 4.453125 -5.84375 L 0.953125 -5.84375 Z M 0.953125 1.09375 "/>
</symbol>
<symbol overflow="visible" id="glyph0-1">
<path style="stroke:none;" d="M 0.890625 -6.5625 L 2.078125 -6.5625 L 4.984375 -1.078125 L 4.984375 -6.5625 L 5.84375 -6.5625 L 5.84375 0 L 4.65625 0 L 1.75 -5.484375 L 1.75 0 L 0.890625 0 Z M 0.890625 -6.5625 "/>
</symbol>
<symbol overflow="visible" id="glyph0-2">
<path style="stroke:none;" d="M 4.8125 -6.34375 L 4.8125 -5.484375 C 4.476562 -5.640625 4.160156 -5.753906 3.859375 -5.828125 C 3.566406 -5.910156 3.28125 -5.953125 3 -5.953125 C 2.507812 -5.953125 2.132812 -5.859375 1.875 -5.671875 C 1.613281 -5.484375 1.484375 -5.21875 1.484375 -4.875 C 1.484375 -4.582031 1.570312 -4.363281 1.75 -4.21875 C 1.925781 -4.070312 2.253906 -3.953125 2.734375 -3.859375 L 3.28125 -3.75 C 3.9375 -3.625 4.421875 -3.398438 4.734375 -3.078125 C 5.054688 -2.765625 5.21875 -2.34375 5.21875 -1.8125 C 5.21875 -1.175781 5.003906 -0.691406 4.578125 -0.359375 C 4.148438 -0.0351562 3.523438 0.125 2.703125 0.125 C 2.390625 0.125 2.054688 0.0859375 1.703125 0.015625 C 1.359375 -0.046875 1 -0.148438 0.625 -0.296875 L 0.625 -1.203125 C 0.976562 -1.003906 1.328125 -0.851562 1.671875 -0.75 C 2.023438 -0.644531 2.367188 -0.59375 2.703125 -0.59375 C 3.203125 -0.59375 3.585938 -0.691406 3.859375 -0.890625 C 4.140625 -1.085938 4.28125 -1.375 4.28125 -1.75 C 4.28125 -2.070312 4.179688 -2.320312 3.984375 -2.5 C 3.785156 -2.675781 3.460938 -2.8125 3.015625 -2.90625 L 2.46875 -3.015625 C 1.8125 -3.148438 1.332031 -3.359375 1.03125 -3.640625 C 0.738281 -3.921875 0.59375 -4.3125 0.59375 -4.8125 C 0.59375 -5.382812 0.796875 -5.835938 1.203125 -6.171875 C 1.609375 -6.515625 2.171875 -6.6875 2.890625 -6.6875 C 3.203125 -6.6875 3.515625 -6.65625 3.828125 -6.59375 C 4.148438 -6.539062 4.476562 -6.457031 4.8125 -6.34375 Z M 4.8125 -6.34375 "/>
</symbol>
<symbol overflow="visible" id="glyph0-3">
<path style="stroke:none;" d="M 0.890625 -6.5625 L 1.765625 -6.5625 L 1.765625 -3.875 L 5 -3.875 L 5 -6.5625 L 5.890625 -6.5625 L 5.890625 0 L 5 0 L 5 -3.125 L 1.765625 -3.125 L 1.765625 0 L 0.890625 0 Z M 0.890625 -6.5625 "/>
</symbol>
</g>
</defs>
<g id="surface45777">
<rect x="0" y="0" width="300" height="300" style="fill:rgb(100%,100%,100%);fill-opacity:1;stroke:none;"/>
<path style="fill:none;stroke-width:1.2;stroke-linecap:butt;stroke-linejoin:miter;stroke:rgb(0%,0%,0%);stroke-opacity:1;stroke-miterlimit:10;" d="M 41.476562 185.9375 L 35.25 162.683594 "/>
<path style="fill:none;stroke-width:1.2;stroke-linecap:butt;stroke-linejoin:miter;stroke:rgb(0%,0%,0%);stroke-opacity:1;stroke-miterlimit:10;" d="M 46.328125 182.148438 L 41.34375 163.542969 "/>
<path style="fill:none;stroke-width:1.2;stroke-linecap:butt;stroke-linejoin:miter;stroke:rgb(0%,0%,0%);stroke-opacity:1;stroke-miterlimit:10;" d="M 64.730469 192.171875 L 41.476562 185.9375 "/>
<path style="fill:none;stroke-width:1.2;stroke-linecap:butt;stroke-linejoin:miter;stroke:rgb(0%,0%,0%);stroke-opacity:1;stroke-miterlimit:10;" d="M 35.25 162.683594 L 52.277344 145.660156 "/>
<path style="fill:none;stroke-width:1.2;stroke-linecap:butt;stroke-linejoin:miter;stroke:rgb(0%,0%,0%);stroke-opacity:1;stroke-miterlimit:10;" d="M 52.277344 145.660156 L 75.53125 151.898438 "/>
<path style="fill:none;stroke-width:1.2;stroke-linecap:butt;stroke-linejoin:miter;stroke:rgb(0%,0%,0%);stroke-opacity:1;stroke-miterlimit:10;" d="M 53.132812 151.757812 L 71.738281 156.746094 "/>
<path style="fill:none;stroke-width:1.2;stroke-linecap:butt;stroke-linejoin:miter;stroke:rgb(0%,0%,0%);stroke-opacity:1;stroke-miterlimit:10;" d="M 75.53125 151.898438 L 81.757812 175.152344 "/>
<path style="fill:none;stroke-width:1.2;stroke-linecap:butt;stroke-linejoin:miter;stroke:rgb(80%,80%,0%);stroke-opacity:1;stroke-miterlimit:10;" d="M 95.722656 138.789062 L 85.625 145.34375 "/>
<path style="fill:none;stroke-width:1.2;stroke-linecap:butt;stroke-linejoin:miter;stroke:rgb(0%,0%,0%);stroke-opacity:1;stroke-miterlimit:10;" d="M 85.625 145.34375 L 75.53125 151.898438 "/>
<path style="fill:none;stroke-width:1.2;stroke-linecap:butt;stroke-linejoin:miter;stroke:rgb(0%,0%,0%);stroke-opacity:1;stroke-miterlimit:10;" d="M 81.757812 175.152344 L 64.730469 192.171875 "/>
<path style="fill:none;stroke-width:1.2;stroke-linecap:butt;stroke-linejoin:miter;stroke:rgb(0%,0%,0%);stroke-opacity:1;stroke-miterlimit:10;" d="M 76.050781 172.847656 L 62.429688 186.464844 "/>
<path style="fill:none;stroke-width:1.2;stroke-linecap:butt;stroke-linejoin:miter;stroke:rgb(0%,0%,0%);stroke-opacity:1;stroke-miterlimit:10;" d="M 81.757812 175.152344 L 93.777344 175.785156 "/>
<path style="fill:none;stroke-width:1.2;stroke-linecap:butt;stroke-linejoin:miter;stroke:rgb(0%,0%,100%);stroke-opacity:1;stroke-miterlimit:10;" d="M 93.777344 175.785156 L 105.800781 176.417969 "/>
<path style="fill:none;stroke-width:1.2;stroke-linecap:butt;stroke-linejoin:miter;stroke:rgb(0%,0%,100%);stroke-opacity:1;stroke-miterlimit:10;" d="M 105.800781 176.417969 L 110.113281 165.179688 "/>
<path style="fill:none;stroke-width:1.2;stroke-linecap:butt;stroke-linejoin:miter;stroke:rgb(0%,0%,0%);stroke-opacity:1;stroke-miterlimit:10;" d="M 110.113281 165.179688 L 114.429688 153.941406 "/>
<path style="fill:none;stroke-width:1.2;stroke-linecap:butt;stroke-linejoin:miter;stroke:rgb(0%,0%,100%);stroke-opacity:1;stroke-miterlimit:10;" d="M 101.375 172.136719 L 104.828125 163.148438 "/>
<path style="fill:none;stroke-width:1.2;stroke-linecap:butt;stroke-linejoin:miter;stroke:rgb(0%,0%,0%);stroke-opacity:1;stroke-miterlimit:10;" d="M 104.828125 163.148438 L 108.277344 154.15625 "/>
<path style=" stroke:none;fill-rule:nonzero;fill:rgb(100%,100%,100%);fill-opacity:1;" d="M 102.800781 170.917969 L 109.800781 170.917969 L 109.800781 181.917969 L 102.800781 181.917969 Z M 102.800781 170.917969 "/>
<g style="fill:rgb(0%,0%,100%);fill-opacity:1;">
  <use xlink:href="#glyph0-1" x="102.800781" y="179.581055"/>
</g>
<path style="fill:none;stroke-width:1.2;stroke-linecap:butt;stroke-linejoin:miter;stroke:rgb(0%,0%,0%);stroke-opacity:1;stroke-miterlimit:10;" d="M 114.429688 153.941406 L 105.078125 146.363281 "/>
<path style="fill:none;stroke-width:1.2;stroke-linecap:butt;stroke-linejoin:miter;stroke:rgb(80%,80%,0%);stroke-opacity:1;stroke-miterlimit:10;" d="M 105.078125 146.363281 L 95.722656 138.789062 "/>
<path style="fill:none;stroke-width:1.2;stroke-linecap:butt;stroke-linejoin:miter;stroke:rgb(0%,0%,0%);stroke-opacity:1;stroke-miterlimit:10;" d="M 114.429688 153.941406 L 137.6875 147.714844 "/>
<path style=" stroke:none;fill-rule:nonzero;fill:rgb(100%,100%,100%);fill-opacity:1;" d="M 92.722656 133.289062 L 98.722656 133.289062 L 98.722656 144.289062 L 92.722656 144.289062 Z M 92.722656 133.289062 "/>
<g style="fill:rgb(80%,80%,0%);fill-opacity:1;">
  <use xlink:href="#glyph0-2" x="92.722656" y="141.952148"/>
</g>
<path style="fill:none;stroke-width:1.2;stroke-linecap:butt;stroke-linejoin:miter;stroke:rgb(0%,0%,0%);stroke-opacity:1;stroke-miterlimit:10;" d="M 137.6875 147.714844 L 154.707031 164.742188 "/>
<path style="fill:none;stroke-width:1.2;stroke-linecap:butt;stroke-linejoin:miter;stroke:rgb(0%,0%,0%);stroke-opacity:1;stroke-miterlimit:10;" d="M 135.382812 153.421875 L 149 167.042969 "/>
<path style="fill:none;stroke-width:1.2;stroke-linecap:butt;stroke-linejoin:miter;stroke:rgb(0%,0%,0%);stroke-opacity:1;stroke-miterlimit:10;" d="M 137.6875 147.714844 L 143.921875 124.460938 "/>
<path style="fill:none;stroke-width:1.2;stroke-linecap:butt;stroke-linejoin:miter;stroke:rgb(0%,0%,0%);stroke-opacity:1;stroke-miterlimit:10;" d="M 154.707031 164.742188 L 166.335938 161.625 "/>
<path style="fill:none;stroke-width:1.2;stroke-linecap:butt;stroke-linejoin:miter;stroke:rgb(0%,0%,100%);stroke-opacity:1;stroke-miterlimit:10;" d="M 166.335938 161.625 L 177.960938 158.511719 "/>
<path style="fill:none;stroke-width:1.2;stroke-linecap:butt;stroke-linejoin:miter;stroke:rgb(0%,0%,100%);stroke-opacity:1;stroke-miterlimit:10;" d="M 177.960938 158.511719 L 186.472656 167.027344 "/>
<path style="fill:none;stroke-width:1.2;stroke-linecap:butt;stroke-linejoin:miter;stroke:rgb(0%,0%,0%);stroke-opacity:1;stroke-miterlimit:10;" d="M 186.472656 167.027344 L 194.984375 175.539062 "/>
<path style=" stroke:none;fill-rule:nonzero;fill:rgb(100%,100%,100%);fill-opacity:1;" d="M 170.960938 153.011719 L 184.960938 153.011719 L 184.960938 164.011719 L 170.960938 164.011719 Z M 170.960938 153.011719 "/>
<g style="fill:rgb(0%,0%,100%);fill-opacity:1;">
  <use xlink:href="#glyph0-1" x="170.960938" y="161.674805"/>
  <use xlink:href="#glyph0-3" x="177.938477" y="161.674805"/>
</g>
<path style="fill:none;stroke-width:1.2;stroke-linecap:butt;stroke-linejoin:miter;stroke:rgb(0%,0%,0%);stroke-opacity:1;stroke-miterlimit:10;" d="M 192.246094 174.804688 L 189.128906 186.433594 "/>
<path style="fill:none;stroke-width:1.2;stroke-linecap:butt;stroke-linejoin:miter;stroke:rgb(80%,80%,0%);stroke-opacity:1;stroke-miterlimit:10;" d="M 189.128906 186.433594 L 186.011719 198.058594 "/>
<path style="fill:none;stroke-width:1.2;stroke-linecap:butt;stroke-linejoin:miter;stroke:rgb(0%,0%,0%);stroke-opacity:1;stroke-miterlimit:10;" d="M 197.71875 176.273438 L 194.601562 187.898438 "/>
<path style="fill:none;stroke-width:1.2;stroke-linecap:butt;stroke-linejoin:miter;stroke:rgb(80%,80%,0%);stroke-opacity:1;stroke-miterlimit:10;" d="M 194.601562 187.898438 L 191.484375 199.527344 "/>
<path style="fill:none;stroke-width:1.2;stroke-linecap:butt;stroke-linejoin:miter;stroke:rgb(0%,0%,0%);stroke-opacity:1;stroke-miterlimit:10;" d="M 194.984375 175.539062 L 218.238281 169.3125 "/>
<path style=" stroke:none;fill-rule:nonzero;fill:rgb(100%,100%,100%);fill-opacity:1;" d="M 185.75 193.292969 L 191.75 193.292969 L 191.75 204.292969 L 185.75 204.292969 Z M 185.75 193.292969 "/>
<g style="fill:rgb(80%,80%,0%);fill-opacity:1;">
  <use xlink:href="#glyph0-2" x="185.75" y="201.956055"/>
</g>
<path style="fill:none;stroke-width:1.2;stroke-linecap:butt;stroke-linejoin:miter;stroke:rgb(0%,0%,0%);stroke-opacity:1;stroke-miterlimit:10;" d="M 218.238281 169.3125 L 235.257812 186.339844 "/>
<path style="fill:none;stroke-width:1.2;stroke-linecap:butt;stroke-linejoin:miter;stroke:rgb(0%,0%,0%);stroke-opacity:1;stroke-miterlimit:10;" d="M 223.945312 167.011719 L 237.5625 180.628906 "/>
<path style="fill:none;stroke-width:1.2;stroke-linecap:butt;stroke-linejoin:miter;stroke:rgb(0%,0%,0%);stroke-opacity:1;stroke-miterlimit:10;" d="M 224.472656 146.058594 L 218.238281 169.3125 "/>
<path style="fill:none;stroke-width:1.2;stroke-linecap:butt;stroke-linejoin:miter;stroke:rgb(0%,0%,0%);stroke-opacity:1;stroke-miterlimit:10;" d="M 235.257812 186.339844 L 258.515625 180.109375 "/>
<path style="fill:none;stroke-width:1.2;stroke-linecap:butt;stroke-linejoin:miter;stroke:rgb(0%,0%,0%);stroke-opacity:1;stroke-miterlimit:10;" d="M 258.515625 180.109375 L 261.632812 168.484375 "/>
<path style="fill:none;stroke-width:1.2;stroke-linecap:butt;stroke-linejoin:miter;stroke:rgb(0%,0%,100%);stroke-opacity:1;stroke-miterlimit:10;" d="M 261.632812 168.484375 L 264.75 156.855469 "/>
<path style="fill:none;stroke-width:1.2;stroke-linecap:butt;stroke-linejoin:miter;stroke:rgb(0%,0%,0%);stroke-opacity:1;stroke-miterlimit:10;" d="M 253.667969 176.320312 L 256.160156 167.015625 "/>
<path style="fill:none;stroke-width:1.2;stroke-linecap:butt;stroke-linejoin:miter;stroke:rgb(0%,0%,100%);stroke-opacity:1;stroke-miterlimit:10;" d="M 256.160156 167.015625 L 258.65625 157.714844 "/>
<path style="fill:none;stroke-width:1.2;stroke-linecap:butt;stroke-linejoin:miter;stroke:rgb(0%,0%,100%);stroke-opacity:1;stroke-miterlimit:10;" d="M 264.75 156.855469 L 256.238281 148.34375 "/>
<path style="fill:none;stroke-width:1.2;stroke-linecap:butt;stroke-linejoin:miter;stroke:rgb(0%,0%,0%);stroke-opacity:1;stroke-miterlimit:10;" d="M 256.238281 148.34375 L 247.730469 139.832031 "/>
<path style=" stroke:none;fill-rule:nonzero;fill:rgb(100%,100%,100%);fill-opacity:1;" d="M 261.75 151.355469 L 268.75 151.355469 L 268.75 162.355469 L 261.75 162.355469 Z M 261.75 151.355469 "/>
<g style="fill:rgb(0%,0%,100%);fill-opacity:1;">
  <use xlink:href="#glyph0-1" x="261.75" y="160.018555"/>
</g>
<path style="fill:none;stroke-width:1.2;stroke-linecap:butt;stroke-linejoin:miter;stroke:rgb(0%,0%,0%);stroke-opacity:1;stroke-miterlimit:10;" d="M 247.730469 139.832031 L 224.472656 146.058594 "/>
<path style="fill:none;stroke-width:1.2;stroke-linecap:butt;stroke-linejoin:miter;stroke:rgb(0%,0%,0%);stroke-opacity:1;stroke-miterlimit:10;" d="M 246.867188 145.925781 L 228.265625 150.90625 "/>
<path style="fill:none;stroke-width:1.2;stroke-linecap:butt;stroke-linejoin:miter;stroke:rgb(0%,0%,0%);stroke-opacity:1;stroke-miterlimit:10;" d="M 143.921875 124.460938 L 147.039062 112.832031 "/>
<path style="fill:none;stroke-width:1.2;stroke-linecap:butt;stroke-linejoin:miter;stroke:rgb(0%,0%,100%);stroke-opacity:1;stroke-miterlimit:10;" d="M 147.039062 112.832031 L 150.15625 101.207031 "/>
<path style="fill:none;stroke-width:1.2;stroke-linecap:butt;stroke-linejoin:miter;stroke:rgb(0%,0%,0%);stroke-opacity:1;stroke-miterlimit:10;" d="M 150.015625 123.601562 L 152.507812 114.300781 "/>
<path style="fill:none;stroke-width:1.2;stroke-linecap:butt;stroke-linejoin:miter;stroke:rgb(0%,0%,100%);stroke-opacity:1;stroke-miterlimit:10;" d="M 152.507812 114.300781 L 155.003906 105 "/>
<path style="fill:none;stroke-width:1.2;stroke-linecap:butt;stroke-linejoin:miter;stroke:rgb(0%,0%,0%);stroke-opacity:1;stroke-miterlimit:10;" d="M 139.074219 120.667969 L 141.566406 111.367188 "/>
<path style="fill:none;stroke-width:1.2;stroke-linecap:butt;stroke-linejoin:miter;stroke:rgb(0%,0%,100%);stroke-opacity:1;stroke-miterlimit:10;" d="M 141.566406 111.367188 L 144.058594 102.066406 "/>
<path style=" stroke:none;fill-rule:nonzero;fill:rgb(100%,100%,100%);fill-opacity:1;" d="M 147.15625 95.707031 L 154.15625 95.707031 L 154.15625 106.707031 L 147.15625 106.707031 Z M 147.15625 95.707031 "/>
<g style="fill:rgb(0%,0%,100%);fill-opacity:1;">
  <use xlink:href="#glyph0-1" x="147.15625" y="104.370117"/>
</g>
</g>
</svg>

<svg xmlns="http://www.w3.org/2000/svg" xmlns:xlink="http://www.w3.org/1999/xlink" width="300pt" height="300pt" viewBox="0 0 300 300"><defs><symbol overflow="visible"><path d="M.453 1.594v-7.938h4.5v7.938zm.5-.5h3.5v-6.938h-3.5zm0 0"/></symbol><symbol overflow="visible" id="a"><path d="M.89-6.563H2.08l2.906 5.485v-5.484h.86V0H4.656L1.75-5.484V0H.89zm0 0"/></symbol><symbol overflow="visible" id="b"><path d="M4.813-6.344v.86c-.336-.157-.653-.27-.954-.344-.294-.082-.58-.125-.86-.125-.492 0-.867.094-1.125.28-.262.19-.39.454-.39.798 0 .293.085.512.265.656.176.15.504.267.984.36l.547.11c.658.125 1.142.352 1.454.672.32.312.485.734.485 1.265 0 .637-.216 1.122-.642 1.454-.43.325-1.055.485-1.875.485-.312 0-.648-.04-1-.11C1.36-.046 1-.147.625-.296v-.906c.352.2.703.35 1.047.453.35.105.695.156 1.03.156.5 0 .884-.097 1.157-.297.28-.196.42-.485.42-.86 0-.32-.1-.57-.296-.75-.2-.176-.523-.313-.968-.406l-.547-.11C1.81-3.148 1.33-3.36 1.03-3.64.74-3.923.595-4.313.595-4.813c0-.57.203-1.024.61-1.36.405-.344.968-.516 1.687-.516.313 0 .626.032.938.094.32.055.65.137.985.25zm0 0"/></symbol><symbol overflow="visible" id="c"><path d="M.89-6.563h.876v2.688H5v-2.688h.89V0H5v-3.125H1.766V0H.89zm0 0"/></symbol></defs><g><path fill="#fff" d="M0 0h300v300H0z"/><path d="M41.477 185.938l-6.227-23.254M46.328 182.148l-4.984-18.605M64.73 192.172l-23.253-6.234M35.25 162.684l17.027-17.024M52.277 145.66l23.254 6.238M53.133 151.758l18.605 4.988M75.53 151.898l6.228 23.254" stroke-width="1.2" stroke="#000" stroke-miterlimit="10" fill="none"/><path d="M95.723 138.79l-10.098 6.554" stroke-width="1.2" stroke="#cc0" stroke-miterlimit="10" fill="none"/><path d="M85.625 145.344l-10.094 6.554M81.758 175.152l-17.028 17.02M76.05 172.848l-13.62 13.617M81.758 175.152l12.02.633" stroke-width="1.2" stroke="#000" stroke-miterlimit="10" fill="none"/><path d="M93.777 175.785l12.024.633M105.8 176.418l4.313-11.238" stroke-width="1.2" stroke="#00f" stroke-miterlimit="10" fill="none"/><path d="M110.113 165.18l4.317-11.24" stroke-width="1.2" stroke="#000" stroke-miterlimit="10" fill="none"/><path d="M101.375 172.137l3.453-8.99" stroke-width="1.2" stroke="#00f" stroke-miterlimit="10" fill="none"/><path d="M104.828 163.148l3.45-8.992" stroke-width="1.2" stroke="#000" stroke-miterlimit="10" fill="none"/><path d="M102.8 170.918h7v11h-7zm0 0" fill="#fff"/><use xlink:href="#a" x="102.801" y="179.581" fill="#00f"/><path d="M114.43 153.94l-9.352-7.577" stroke-width="1.2" stroke="#000" stroke-miterlimit="10" fill="none"/><path d="M105.078 146.363l-9.355-7.574" stroke-width="1.2" stroke="#cc0" stroke-miterlimit="10" fill="none"/><path d="M114.43 153.94l23.257-6.225" stroke-width="1.2" stroke="#000" stroke-miterlimit="10" fill="none"/><path d="M92.723 133.29h6v11h-6zm0 0" fill="#fff"/><use xlink:href="#b" x="92.723" y="141.952" fill="#cc0"/><path d="M137.688 147.715l17.02 17.027M135.383 153.422L149 167.042M137.688 147.715l6.234-23.254M154.707 164.742l11.63-3.117" stroke-width="1.2" stroke="#000" stroke-miterlimit="10" fill="none"/><path d="M166.336 161.625l11.625-3.113M177.96 158.512l8.513 8.515" stroke-width="1.2" stroke="#00f" stroke-miterlimit="10" fill="none"/><path d="M186.473 167.027l8.51 8.512" stroke-width="1.2" stroke="#000" stroke-miterlimit="10" fill="none"/><path d="M170.96 153.012h14v11h-14zm0 0" fill="#fff"/><g fill="#00f"><use xlink:href="#a" x="170.961" y="161.675"/><use xlink:href="#c" x="177.938" y="161.675"/></g><path d="M192.246 174.805l-3.117 11.63" stroke-width="1.2" stroke="#000" stroke-miterlimit="10" fill="none"/><path d="M189.13 186.434l-3.118 11.625" stroke-width="1.2" stroke="#cc0" stroke-miterlimit="10" fill="none"/><path d="M197.72 176.273l-3.118 11.625" stroke-width="1.2" stroke="#000" stroke-miterlimit="10" fill="none"/><path d="M194.602 187.898l-3.118 11.63" stroke-width="1.2" stroke="#cc0" stroke-miterlimit="10" fill="none"/><path d="M194.984 175.54l23.254-6.227" stroke-width="1.2" stroke="#000" stroke-miterlimit="10" fill="none"/><path d="M185.75 193.293h6v11h-6zm0 0" fill="#fff"/><use xlink:href="#b" x="185.75" y="201.956" fill="#cc0"/><path d="M218.238 169.313l17.02 17.027M223.945 167.012l13.618 13.617M224.473 146.06l-6.235 23.252M235.258 186.34l23.258-6.23M258.516 180.11l3.117-11.626" stroke-width="1.2" stroke="#000" stroke-miterlimit="10" fill="none"/><path d="M261.633 168.484l3.117-11.63" stroke-width="1.2" stroke="#00f" stroke-miterlimit="10" fill="none"/><path d="M253.668 176.32l2.492-9.304" stroke-width="1.2" stroke="#000" stroke-miterlimit="10" fill="none"/><path d="M256.16 167.016l2.496-9.3M264.75 156.855l-8.512-8.51" stroke-width="1.2" stroke="#00f" stroke-miterlimit="10" fill="none"/><path d="M256.238 148.344l-8.508-8.512" stroke-width="1.2" stroke="#000" stroke-miterlimit="10" fill="none"/><path d="M261.75 151.355h7v11h-7zm0 0" fill="#fff"/><use xlink:href="#a" x="261.75" y="160.019" fill="#00f"/><path d="M247.73 139.832l-23.257 6.227M246.867 145.926l-18.6 4.98M143.922 124.46l3.117-11.628" stroke-width="1.2" stroke="#000" stroke-miterlimit="10" fill="none"/><path d="M147.04 112.832l3.116-11.625" stroke-width="1.2" stroke="#00f" stroke-miterlimit="10" fill="none"/><path d="M150.016 123.602l2.492-9.3" stroke-width="1.2" stroke="#000" stroke-miterlimit="10" fill="none"/><path d="M152.508 114.3l2.496-9.3" stroke-width="1.2" stroke="#00f" stroke-miterlimit="10" fill="none"/><path d="M139.074 120.668l2.492-9.3" stroke-width="1.2" stroke="#000" stroke-miterlimit="10" fill="none"/><path d="M141.566 111.367l2.493-9.3" stroke-width="1.2" stroke="#00f" stroke-miterlimit="10" fill="none"/><path d="M147.156 95.707h7v11h-7zm0 0" fill="#fff"/><use xlink:href="#a" x="147.156" y="104.37" fill="#00f"/></g></svg>
